images/ic_warning.svg

<svg width="26" height="26" viewBox="0 0 26 26" fill="none" xmlns="http://www.w3.org/2000/svg">
<g clip-path="url(#clip0)">
<path d="M25.7043 18.5644C25.4963 18.0435 24.9055 17.7897 24.3846 17.9977C23.8637 18.2056 23.6099 18.7964 23.8179 19.3173C24.0823 19.9797 23.9956 20.7359 23.586 21.3404C23.1762 21.9452 22.52 22.2921 21.7858 22.2921H4.21832C3.41745 22.2921 2.70626 21.8742 2.3158 21.1742C1.92473 20.4729 1.94312 19.6466 2.36496 18.9635L11.1487 4.74202C11.5487 4.09446 12.2415 3.70786 13.0021 3.70786C13.7627 3.70786 14.4554 4.09446 14.8554 4.74202L21.3517 15.2601C21.6465 15.7373 22.2723 15.8853 22.7494 15.5904C23.2265 15.2957 23.3745 14.6699 23.0797 14.1927L16.5834 3.6747C15.8107 2.42365 14.4719 1.67676 13.002 1.67676C11.5322 1.67676 10.1934 2.4237 9.42067 3.6747L0.636918 17.8962C-0.177411 19.2148 -0.212857 20.8101 0.542008 22.1635C1.29626 23.5159 2.67056 24.3232 4.21832 24.3232H21.7858C23.2046 24.3232 24.4735 23.6512 25.2674 22.4797C26.0553 21.3169 26.2186 19.8532 25.7043 18.5644Z" fill="#F34949"/>
<path d="M13.0025 20.3118C13.5634 20.3118 14.018 19.8572 14.018 19.2963C14.018 18.7354 13.5634 18.2808 13.0025 18.2808H13.002C12.4411 18.2808 11.9867 18.7354 11.9867 19.2963C11.9867 19.8572 12.4416 20.3118 13.0025 20.3118Z" fill="#F34949"/>
<path d="M14.0176 15.7419V8.27773C14.0176 7.71685 13.563 7.26221 13.0021 7.26221C12.4412 7.26221 11.9866 7.71685 11.9866 8.27773V15.7419C11.9866 16.3028 12.4412 16.7575 13.0021 16.7575C13.563 16.7575 14.0176 16.3028 14.0176 15.7419Z" fill="#F34949"/>
</g>
<defs>
<clipPath id="clip0">
<rect width="26" height="26" fill="white"/>
</clipPath>
</defs>
</svg>

<svg xmlns="http://www.w3.org/2000/svg" fill="none" viewBox="0 0 26 26"><g clip-path="url(#A)" fill="#f34949"><path d="M25.704 18.564c-.208-.52-.8-.775-1.32-.567s-.775.8-.567 1.32a2.17 2.17 0 0 1-.232 2.023 2.14 2.14 0 0 1-1.8.952H4.22a2.15 2.15 0 0 1-1.902-1.118c-.4-.7-.373-1.528.05-2.2l8.784-14.22c.4-.648 1.093-1.034 1.853-1.034s1.453.387 1.853 1.034l6.496 10.518c.295.477.92.625 1.398.33s.625-.92.33-1.398l-6.498-10.52a4.18 4.18 0 0 0-3.581-1.998 4.18 4.18 0 0 0-3.581 1.998L.637 17.897a4.16 4.16 0 0 0-.095 4.267 4.16 4.16 0 0 0 3.676 2.16h17.567c1.42 0 2.688-.672 3.482-1.843a4.2 4.2 0 0 0 .437-3.915zm-12.702 1.748c.56 0 1.015-.455 1.015-1.015s-.455-1.016-1.015-1.016-1.016.455-1.016 1.016.455 1.015 1.016 1.015zm1.016-4.57V8.278c0-.56-.455-1.015-1.016-1.015s-1.015.455-1.015 1.015v7.464c0 .56.455 1.016 1.015 1.016s1.016-.455 1.016-1.016z"/></g><defs><clipPath id="A"><path fill="#fff" d="M0 0h26v26H0z"/></clipPath></defs></svg>
